assets/images/icon-twitter.svg

<svg height="20" viewBox="0 0 20 20" width="20" xmlns="http://www.w3.org/2000/svg"><path d="m7.34013605 17c6.41496595 0 9.92517005-5.3877953 9.92517005-10.05216535 0-.15157481 0-.30314961-.0068027-.45472441.6802721-.496063 1.2721088-1.1230315 1.7414966-1.83267717-.6258503.28248032-1.2993197.46850394-2.0068027.55807087.7210884-.43405512 1.2721088-1.12992126 1.5374149-1.95669292-.6734693.40649607-1.4217687.69586615-2.217687.85433071-.6394558-.68897638-1.5442177-1.11614173-2.5442177-1.11614173-1.9251701 0-3.4897959 1.58464567-3.4897959 3.53444882 0 .27559055.0340136.54429134.0884353.80610236-2.89795914-.14468504-5.46938772-1.55708661-7.19047615-3.69291338-.29931973.52362204-.46938776 1.12992126-.46938776 1.77755905 0 1.22637795.61904762 2.30807087 1.55102041 2.94192913-.57142857-.02066929-1.10884354-.17913385-1.57823129-.44094488v.04822835c0 1.70866142 1.20408163 3.14173225 2.79591837 3.46555115-.29251701.0826772-.59863946.1240158-.91836735.1240158-.2244898 0-.44217687-.0206693-.65306123-.0620079.44217688 1.4055118 1.73469388 2.4251969 3.25850341 2.4527559-1.19727892.9507874-2.70068028 1.515748-4.33333334 1.515748-.27891156 0-.55782313-.0137795-.82993197-.0482283 1.53741497.992126 3.37414966 1.5777559 5.34013605 1.5777559" fill="#1da1f2"/></svg>

<svg xmlns="http://www.w3.org/2000/svg" width="20" height="20" viewBox="0 0 20 20">
  <path fill="#1DA1F2" d="M7.34013605,17 C13.755102,17 17.2653061,11.6122047 17.2653061,6.94783465 C17.2653061,6.79625984 17.2653061,6.64468504 17.2585034,6.49311024 C17.9387755,5.99704724 18.5306122,5.37007874 19,4.66043307 C18.3741497,4.94291339 17.7006803,5.12893701 16.9931973,5.21850394 C17.7142857,4.78444882 18.2653061,4.08858268 18.5306122,3.26181102 C17.8571429,3.66830709 17.1088435,3.95767717 16.3129252,4.11614173 C15.6734694,3.42716535 14.7687075,3 13.7687075,3 C11.8435374,3 10.2789116,4.58464567 10.2789116,6.53444882 C10.2789116,6.81003937 10.3129252,7.07874016 10.3673469,7.34055118 C7.46938776,7.19586614 4.89795918,5.78346457 3.17687075,3.6476378 C2.87755102,4.17125984 2.70748299,4.77755906 2.70748299,5.42519685 C2.70748299,6.6515748 3.32653061,7.73326772 4.2585034,8.36712598 C3.68707483,8.34645669 3.14965986,8.18799213 2.68027211,7.9261811 C2.68027211,7.93996063 2.68027211,7.95374016 2.68027211,7.97440945 C2.68027211,9.68307087 3.88435374,11.1161417 5.47619048,11.4399606 C5.18367347,11.5226378 4.87755102,11.5639764 4.55782313,11.5639764 C4.33333333,11.5639764 4.11564626,11.5433071 3.9047619,11.5019685 C4.34693878,12.9074803 5.63945578,13.9271654 7.16326531,13.9547244 C5.96598639,14.9055118 4.46258503,15.4704724 2.82993197,15.4704724 C2.55102041,15.4704724 2.27210884,15.4566929 2,15.4222441 C3.53741497,16.4143701 5.37414966,17 7.34013605,17"/>
</svg>
